assets/icons/qvision/restore_from_trash.svg

<svg xmlns="http://www.w3.org/2000/svg" height="24" viewBox="0 0 24 24" width="24"><path d="M0 0h24v24H0z" fill="none"/><path d="M19 4h-3.5l-1-1h-5l-1 1H5v2h14zM6 7v12c0 1.1.9 2 2 2h8c1.1 0 2-.9 2-2V7H6zm8 7v4h-4v-4H8l4-4 4 4h-2z"/></svg>

<svg width="24" height="24" viewBox="0 0 24 24" fill="none" xmlns="http://www.w3.org/2000/svg">
<g clip-path="url(#clip0_147_4642)">
<path d="M19 4H15.5L14.5 3H9.5L8.5 4H5V6H19V4ZM6 7V19C6 20.1 6.9 21 8 21H16C17.1 21 18 20.1 18 19V7H6ZM14 14V18H10V14H8L12 10L16 14H14Z" fill="#323232"/>
</g>
<defs>
<clipPath id="clip0_147_4642">
<rect width="24" height="24" fill="white"/>
</clipPath>
</defs>
</svg>
